src/icons/deployment-queued-legacy.svg

<?xml version="1.0" encoding="utf-8"?>
<!-- Generator: Adobe Illustrator 20.1.0, SVG Export Plug-In . SVG Version: 6.00 Build 0)  -->
<svg version="1.1" id="Layer_1" xmlns="http://www.w3.org/2000/svg" xmlns:xlink="http://www.w3.org/1999/xlink" x="0px" y="0px"
	 viewBox="0 0 14 14" style="enable-background:new 0 0 14 14;" xml:space="preserve">
<style type="text/css">
	.st0{fill:#B8BFCA;}
	.st1{fill:#FFFFFF;}
</style>
<title>HDL/Icon/Standard/Deployment/Legacy/que</title>
<desc>Created with Sketch.</desc>
<g id="Colors">
	<g id="Deployment-Icons" transform="translate(-101.000000, -1061.000000)">
		<g id="Legacy-icons---HDL-Colors" transform="translate(101.000000, 732.000000)">
			<g id="HDL_x2F_Icon_x2F_Standard_x2F_Deployment_x2F_Legacy_x2F_que" transform="translate(0.000000, 329.000000)">
				<g id="Que">
					<g id="Ellipse_524">
						<circle id="accent" class="st0" cx="7" cy="7" r="7"/>
					</g>
					<g id="Ellipse_1554" transform="translate(1.000000, 1.000000)">
						<circle id="Oval" class="st1" cx="6" cy="6" r="5.2"/>
					</g>
					<g id="Q" transform="translate(3.000000, 3.000000)">
						<path id="accent_1_" class="st0" d="M7,6.4L6.4,7.2L5.7,6.6c-0.5,0.3-1,0.5-1.8,0.5c-1.8,0-3-1.4-3-3.2c0-1.7,1.2-3.1,3-3.1
							S7,2.2,7,4c0,0.7-0.2,1.3-0.6,1.8L7,6.4z M3.9,5l0.6-0.8l1,1C5.7,4.8,5.8,4.4,5.8,4c0-1.1-0.8-2.2-1.9-2.2c-1,0-1.8,1-1.8,2.2
							S2.9,6.2,4,6.2c0.3,0,0.7-0.1,1-0.3L3.9,5z"/>
					</g>
				</g>
			</g>
		</g>
	</g>
</g>
</svg>

<?xml version="1.0" encoding="UTF-8"?>
<svg width="14px" height="14px" viewBox="0 0 14 14" version="1.1" xmlns="http://www.w3.org/2000/svg" xmlns:xlink="http://www.w3.org/1999/xlink">
    <!-- Generator: Sketch 59 (86127) - https://sketch.com -->
    <title>HDL/Icon/Standard/Deployment/Legacy/que</title>
    <desc>Created with Sketch.</desc>
    <g id="Colors" stroke="none" stroke-width="1" fill="none" fill-rule="evenodd">
        <g id="Deployment-Icons" transform="translate(-101.000000, -1061.000000)">
            <g id="Legacy-icons---HDL-Colors" transform="translate(101.000000, 732.000000)">
                <g id="HDL/Icon/Standard/Deployment/Legacy/que" transform="translate(0.000000, 329.000000)">
                    <g id="Que">
                        <g id="Ellipse_524" fill="#B8BFCA" fill-rule="nonzero">
                            <circle id="accent" cx="7" cy="7" r="7"></circle>
                        </g>
                        <g id="Ellipse_1554" transform="translate(1.000000, 1.000000)" fill="#FFFFFF" fill-rule="nonzero">
                            <circle id="Oval" cx="6" cy="6" r="5.2"></circle>
                        </g>
                        <g id="Q" transform="translate(3.000000, 3.000000)" fill="#B8BFCA" fill-rule="nonzero">
                            <path d="M7,6.4 L6.4,7.2 L5.7,6.6 C5.2,6.9 4.7,7.1 3.9,7.1 C2.1,7.1 0.9,5.7 0.9,3.9 C0.9,2.2 2.1,0.8 3.9,0.8 C5.7,0.8 7,2.2 7,4 C7,4.7 6.8,5.3 6.4,5.8 L7,6.4 Z M3.9,5 L4.5,4.2 L5.5,5.2 C5.7,4.8 5.8,4.4 5.8,4 C5.8,2.9 5,1.8 3.9,1.8 C2.9,1.8 2.1,2.8 2.1,4 C2.1,5.2 2.9,6.2 4,6.2 C4.3,6.2 4.7,6.1 5,5.9 L3.9,5 Z" id="accent"></path>
                        </g>
                    </g>
                </g>
            </g>
        </g>
    </g>
</svg>
